Flat-Remix-Dark/apps/scalable/distributor-logo-linuxmint.svg

<svg xmlns="http://www.w3.org/2000/svg" width="384pt" height="384pt" version="1.1" viewBox="0 0 384 384"> <g> <path style="fill:rgb(3.137%,44.313%,25.882%)" d="M 15.75 33.984375 L 15.75 135 L 57.246094 135 L 57.246094 234.640625 C 57.246094 300.136719 114.132812 350.015625 179.6875 350.015625 L 368.25 350.015625 L 368.25 150.050781 C 368.25 84.492188 311.429688 34.894531 245.8125 34.894531 L 190.863281 34.671875 Z M 15.75 33.984375"/> <path style="fill-rule:evenodd;fill:rgb(4.705%,63.137%,36.862%)" d="M 43.945312 63.332031 L 43.945312 110.980469 L 60.585938 110.980469 C 71.875 110.980469 85.4375 121.402344 85.4375 136.972656 L 85.671875 237.300781 C 85.671875 286.171875 128.382812 325.773438 181.203125 325.773438 L 311.628906 325.773438 C 328.347656 325.773438 343.09375 315.136719 343.09375 298.863281 L 343.09375 152.710938 C 343.09375 103.835938 300.210938 64.242188 247.328125 64.242188 L 192.378906 64.242188 L 192.378906 64.011719 Z M 111.207031 93.195312 L 138.566406 93.195312 L 138.566406 232.96875 C 138.566406 251.6875 151.191406 266.261719 166.15625 266.261719 L 196.941406 266.484375 L 196.941406 294.988281 L 161.136719 294.988281 C 148.464844 293.632812 137.226562 287.605469 127.847656 278.347656 C 116.871094 267.414062 111.207031 253.859375 111.207031 238.445312 Z M 214.039062 117.136719 C 226.191406 117.136719 236.703125 121.636719 245.28125 129.902344 C 253.882812 121.625 264.585938 117.136719 276.746094 117.136719 C 289.132812 117.136719 300.046875 121.660156 308.890625 130.59375 C 317.730469 139.519531 322.347656 150.617188 322.347656 163.195312 L 322.570312 226.359375 L 293.609375 226.359375 L 293.609375 163.195312 C 293.609375 158.375 292.042969 154.59375 288.601562 151.117188 C 285.148438 147.628906 281.496094 146.097656 276.746094 146.097656 C 271.898438 146.097656 268.121094 147.621094 264.660156 151.117188 C 261.214844 154.59375 259.640625 158.375 259.640625 163.195312 L 259.640625 226.8125 L 230.914062 226.8125 L 230.914062 163.195312 C 230.914062 158.375 229.335938 154.59375 225.894531 151.117188 C 222.433594 147.621094 218.886719 146.097656 214.039062 146.097656 C 209.289062 146.097656 205.636719 147.628906 202.183594 151.117188 C 198.742188 154.59375 197.164062 158.375 197.164062 163.195312 L 197.164062 226.8125 L 168.203125 226.8125 L 168.203125 163.195312 C 168.203125 150.617188 172.820312 139.519531 181.660156 130.59375 C 190.503906 121.660156 201.652344 117.136719 214.039062 117.136719 Z M 322.570312 242.542969 C 322.257812 245.609375 321.75 248.535156 320.980469 251.4375 C 321.714844 248.59375 322.261719 245.546875 322.570312 242.542969 Z M 291.003906 248.714844 C 290.167969 250.480469 289.136719 252.164062 287.910156 253.71875 C 289.132812 252.160156 290.167969 250.476562 291.003906 248.714844 Z M 291.003906 248.714844"/> <path style="fill-rule:evenodd;fill:rgb(100.000%,100.000%,100.000%)" d="M 111.207031 93.199219 L 111.207031 238.441406 C 111.207031 253.855469 116.875 267.414062 127.851562 278.34375 C 137.230469 287.601562 148.464844 293.632812 161.140625 294.988281 L 196.9375 294.988281 L 196.9375 266.488281 L 166.15625 266.257812 C 151.191406 266.257812 138.566406 251.6875 138.566406 232.96875 L 138.566406 93.199219 Z M 214.039062 117.140625 C 201.652344 117.140625 190.503906 121.660156 181.660156 130.59375 C 172.820312 139.519531 168.207031 150.617188 168.207031 163.199219 L 168.207031 226.8125 L 197.164062 226.8125 L 197.164062 163.199219 C 197.164062 158.375 198.738281 154.589844 202.183594 151.113281 C 205.636719 147.625 209.289062 146.097656 214.039062 146.097656 C 218.886719 146.097656 222.433594 147.617188 225.894531 151.113281 C 229.339844 154.589844 230.910156 158.375 230.910156 163.199219 L 230.910156 226.8125 L 259.640625 226.8125 L 259.640625 163.199219 C 259.640625 158.375 261.214844 154.589844 264.65625 151.113281 C 268.117188 147.617188 271.894531 146.097656 276.742188 146.097656 C 281.492188 146.097656 285.144531 147.625 288.597656 151.113281 C 292.042969 154.589844 293.613281 158.375 293.613281 163.199219 L 293.613281 226.355469 L 322.574219 226.355469 L 322.34375 163.199219 C 322.34375 150.617188 317.730469 139.519531 308.890625 130.59375 C 300.046875 121.660156 289.128906 117.140625 276.742188 117.140625 C 264.582031 117.140625 253.878906 121.628906 245.277344 129.90625 C 236.699219 121.640625 226.191406 117.140625 214.039062 117.140625 Z M 322.574219 242.546875 C 322.265625 245.546875 321.714844 248.59375 320.976562 251.4375 C 321.746094 248.539062 322.257812 245.613281 322.574219 242.546875 Z M 292.929688 243.230469 C 292.03125 246.992188 290.359375 250.609375 287.914062 253.71875 C 290.359375 250.609375 292.03125 246.992188 292.929688 243.230469 Z M 292.929688 243.230469"/> <path style="fill-rule:evenodd;fill:rgb(80.000%,80.000%,80.000%);fill-opacity:0.4" d="M 197.003906 266.457031 L 197.003906 294.941406 L 264.746094 294.941406 C 280.660156 294.941406 294.558594 289.003906 305.835938 277.523438 L 305.933594 277.523438 C 315.523438 267.667969 321.121094 255.882812 322.484375 242.59375 L 322.484375 226.425781 L 293.710938 226.425781 L 293.710938 237.492188 C 293.710938 253.339844 278.652344 266.648438 259.261719 266.648438 Z M 197.003906 266.457031"/> </g> </svg>

<svg width="512" height="512" version="1.1" viewBox="0 0 384 384" xmlns="http://www.w3.org/2000/svg"><path d="m15.75 33.984v101.02h41.496v99.641c0 65.496 56.887 115.38 122.44 115.38h188.56v-199.96c0-65.559-56.82-115.16-122.44-115.16l-54.949-0.22266z" fill="#07703f"/><g fill-rule="evenodd"><path d="m43.945 63.332v47.648h16.641c11.289 0 24.852 10.422 24.852 25.992l0.23438 100.33c0 48.871 42.711 88.473 95.531 88.473h130.43c16.719 0 31.465-10.637 31.465-26.91v-146.15c0-48.875-42.883-88.469-95.766-88.469h-54.949v-0.23047zm67.262 29.863h27.359v139.77c0 18.719 12.625 33.293 27.59 33.293l30.785 0.22265v28.504h-35.805c-12.672-1.3555-23.91-7.3828-33.289-16.641-10.977-10.934-16.641-24.488-16.641-39.902zm102.83 23.941c12.152 0 22.664 4.5 31.242 12.766 8.6016-8.2773 19.305-12.766 31.465-12.766 12.387 0 23.301 4.5234 32.145 13.457 8.8398 8.9258 13.457 20.023 13.457 32.602l0.22265 63.164h-28.961v-63.164c0-4.8203-1.5664-8.6016-5.0078-12.078-3.4531-3.4883-7.1055-5.0195-11.855-5.0195-4.8476 0-8.625 1.5234-12.086 5.0195-3.4453 3.4766-5.0195 7.2578-5.0195 12.078v63.617h-28.727v-63.617c0-4.8203-1.5781-8.6016-5.0195-12.078-3.4609-3.4961-7.0078-5.0195-11.855-5.0195-4.75 0-8.4023 1.5312-11.855 5.0195-3.4414 3.4766-5.0195 7.2578-5.0195 12.078v63.617h-28.961v-63.617c0-12.578 4.6172-23.676 13.457-32.602 8.8438-8.9336 19.992-13.457 32.379-13.457zm108.53 125.41c-0.3125 3.0664-0.82031 5.9922-1.5898 8.8945 0.73437-2.8438 1.2812-5.8906 1.5898-8.8945zm-31.566 6.1719c-0.83594 1.7656-1.8672 3.4492-3.0938 5.0039 1.2226-1.5586 2.2578-3.2422 3.0938-5.0039z" fill="#0aa15c"/><path d="m111.21 100.7v145.24c0 15.414 5.668 28.973 16.645 39.902 9.3789 9.2578 20.613 15.289 33.289 16.645h35.797v-28.5l-30.781-0.23047c-14.965 0-27.59-14.57-27.59-33.289v-139.77zm102.83 23.941c-12.387 0-23.535 4.5195-32.379 13.453-8.8398 8.9258-13.453 20.023-13.453 32.605v63.613h28.957v-63.613c0-4.8242 1.5742-8.6094 5.0195-12.086 3.4531-3.4883 7.1055-5.0156 11.855-5.0156 4.8477 0 8.3945 1.5195 11.855 5.0156 3.4453 3.4766 5.0156 7.2617 5.0156 12.086v63.613h28.73v-63.613c0-4.8242 1.5742-8.6094 5.0156-12.086 3.4609-3.4961 7.2383-5.0156 12.086-5.0156 4.75 0 8.4023 1.5273 11.855 5.0156 3.4453 3.4766 5.0156 7.2617 5.0156 12.086v63.156h28.961l-0.23047-63.156c0-12.582-4.6133-23.68-13.453-32.605-8.8438-8.9336-19.762-13.453-32.148-13.453-12.16 0-22.863 4.4883-31.465 12.766-8.5781-8.2656-19.086-12.766-31.238-12.766zm108.54 125.41c-0.3086 3-0.85938 6.0469-1.5977 8.8906 0.76953-2.8984 1.2812-5.8242 1.5977-8.8906zm-29.645 0.6836c-0.89844 3.7617-2.5703 7.3789-5.0156 10.488 2.4453-3.1094 4.1172-6.7266 5.0156-10.488z" opacity=".3"/><path d="m197 266.46v28.484h67.742c15.914 0 29.812-5.9375 41.09-17.418h0.0976c9.5898-9.8555 15.188-21.641 16.551-34.93v-16.168h-28.773v11.066c0 15.848-15.059 29.156-34.449 29.156z" fill="#ccc" fill-opacity=".4"/></g><path transform="scale(.75)" d="m21 170v10h55.328v-10h-55.328zm55.328 132.85v10c0 87.328 75.85 153.83 163.26 153.83h251.42v-10h-251.42c-87.406 0-163.26-66.506-163.26-153.83z" opacity=".3" stroke-width="1.3333"/><path transform="scale(.75)" d="m21 45.312v10l233.48 0.91602 73.266 0.29688c87.49 0 163.25 66.132 163.25 153.54v-10c0-87.411-75.76-153.54-163.25-153.54l-73.266-0.29688-233.48-0.91602z" fill="#fff" opacity=".3" stroke-width="1.3333"/><path d="m111.21 93.199v145.24c0 15.414 5.668 28.973 16.645 39.902 9.3789 9.2578 20.613 15.289 33.289 16.645h35.797v-28.5l-30.781-0.23047c-14.965 0-27.59-14.57-27.59-33.289v-139.77zm102.83 23.941c-12.387 0-23.535 4.5195-32.379 13.453-8.8398 8.9258-13.453 20.023-13.453 32.605v63.613h28.957v-63.613c0-4.8242 1.5742-8.6094 5.0195-12.086 3.4531-3.4883 7.1055-5.0156 11.855-5.0156 4.8477 0 8.3945 1.5195 11.855 5.0156 3.4453 3.4766 5.0156 7.2617 5.0156 12.086v63.613h28.73v-63.613c0-4.8242 1.5742-8.6094 5.0156-12.086 3.4609-3.4961 7.2383-5.0156 12.086-5.0156 4.75 0 8.4024 1.5273 11.855 5.0156 3.4453 3.4766 5.0156 7.2617 5.0156 12.086v63.156h28.961l-0.23047-63.156c0-12.582-4.6133-23.68-13.453-32.605-8.8438-8.9336-19.762-13.453-32.148-13.453-12.16 0-22.863 4.4883-31.465 12.766-8.5781-8.2656-19.086-12.766-31.238-12.766zm108.54 125.41c-0.3086 3-0.85938 6.0469-1.5977 8.8906 0.76954-2.8984 1.2812-5.8242 1.5977-8.8906zm-29.645 0.6836c-0.89844 3.7617-2.5703 7.3789-5.0156 10.488 2.4453-3.1094 4.1172-6.7266 5.0156-10.488z" fill="#fff" fill-rule="evenodd"/></svg>
